X: 24517
T: Lucy Farr's
R: barndance
M: 4/4
K: Gmajor
"intro"D[B,G] [B,G][B,G]|[A,/F/][B,/G/][C/A/][A,/F/] [B,G][DB]|[Fd]>[Ec] [DB][CA]|[B,2G2] z2||
"dance"D[B,G] .[BG][B,G]|[A,/F/][B,/G/][C/A/][A,/F/] [B,2G2]|D[GB] [GB][GB]|[F/A/][G/B/][A/c/][F/A/] [G2B2]||
|:[Bd][Bd] [c2e2]|[Ac][Ac] [B2d2]|[GB][GB] [Ac][Ac]|1 [FA][FA] [G2B2]:|2 [CA][CA] [B,2G2]||

